!!!COM: Bohuslav (Jan) Martinů
!!!OTL: [T496_Mau-28/2/1-11]
**kern	**dynam	**kern	**dynam
*grp:A	*grp:A	*grp:B	*grp:B
*part2	*part2	*part1	*part1
*staff2	*	*staff1	*
*I"Piano	*	*I"Violin	*
*I'Pno.	*	*I'Vln.	*
*clefF4	*	*clefG2	*
*k[]	*	*k[]	*
*C:	*	*C:	*
*M2/4	*	*M2/4	*
=1	=1	=1	=1
*^	*	*	*
!	!	!LO:DY:ed=paren	!LO:TX:t=[[quarter]=102]	!
8GG'<\	8rB	mf	8ryy	.
!	!	!	!LO:TX:a:B:t=Allegro	!
!	!	!	!LO:TX:t=P:problem:cross-staff beaming not implemented yet	!
8rFF	8B-X'L> 8e-'>X	.	16ryy	4ryy
.	.	.	16ryy	.
8rFF	8A'J 8d'>	.	16ryy	.
.	.	.	16ryy	.
8DD'<\	8rB	.	16ryy	.
.	.	.	16ryy	.
=2	=2	=2	=2	=2
8GG'<\	8rB	.	8ryy	4ryy
8rFF	8B-XL>'> 8e-'>X	.	8ryy	.
8rFF	8AJ' 8d'>	.	8ryy	4ryy
8DD'<\	8rB	.	16ryy	.
.	.	.	16ryy	.
=3	=3	=3	=3	=3
8GG'<\	8rB	.	8ryy	.
8rFF	8B-XL>'> 8e-'>X	.	8ryy	.
8rFF	8AJ' 8d'>	.	8ryy	.
8DD'<\	8rB	.	16ryy	.
.	.	.	16ryy	.
=4	=4	=4	=4	=4
8GG'<\	8rB	.	16ryy	.
.	.	.	16ryy	.
8rFF	8B-XL>'> 8e-'>X	.	16ryy	.
.	.	.	16ryy	.
8rFF	8AJ' 8d'>	.	8ryy	.
8DD'<\	8rB	.	16ryy	4ryy
.	.	.	16ryy	.
=5	=5	=5	=5	=5
8GG'<\	8rB	.	16ryy	.
.	.	.	16ryy	.
8rFF	8B-XL>'> 8e-X'>	.	16ryy	4ryy
.	.	.	16ryy	.
8rFF	8A'J 8d'>	.	8ryy	.
8DD'<\	8rB	.	8ryy	.
!!linebreak:original
=6	=6	=6	=6	=6
8GG'<\	8rB	.	8ryy	.
8rFF	8B-'XL> 8e-'>X	.	16ryy	.
.	.	.	16ryy	.
8rFF	8AJ' 8d'>	.	8ryy	.
8DD'<\	8rB	.	16ryy	.
.	.	.	16ryy	.
=7	=7	=7	=7	=7
8GG'<\	8rB	.	16ryy	.
.	.	.	16ryy	.
8rFF	8B-XL>'> 8e-'>X	.	16ryy	.
.	.	.	16ryy	.
8rFF	8AJ' 8d'>	.	16ryy	.
.	.	.	16ryy	.
8AA'<\	8rB	.	8ryy	4ryy
=8	=8	=8	=8	=8
\8D'<	8rB	.	16ryy	.
.	.	.	16ryy	.
8rFF	8dL>'> 8f'>	.	16ryy	4ryy
.	.	.	16ryy	.
8rFF	8B-'XJ 8en'>	.	16ryy	.
.	.	.	16ryy	.
8AA'<\	8rB	.	16ryy	.
.	.	.	16ryy	.
=9	=9	=9	=9	=9
\8D'<	8rB	.	8ryy	.
8rFF	8dL>'> 8f'>	.	8ryy	.
8rFF	8B-'XJ 8e'>	.	16ryy	.
.	.	.	16ryy	.
8AA'<\	8rB	.	8ryy	.
=10	=10	=10	=10	=10
\8D'<	8rB	.	8ryy	.
8rFF	8dL>'> 8f'>	.	16ryy	.
.	.	.	16ryy	.
8rFF	8B'-XJ 8e'>	.	8ryy	.
8AA'<\	8rB	.	8ryy	.
=11	=11	=11	=11	=11
\8D'<	8rB	.	8ryy	.
8rFF	8d'/ 8f#'>X/	.	8ryy	.
8C'<\	8rB	.	16ryy	.
.	.	.	16ryy	.
8rFF	8D'/ 8d'>/	.	16ryy	.
.	.	.	16ryy	.
*v	*v	*	*	*
=||	=||	=||	=||
*-	*-	*-	*-
!!!system-decoration: s1[(s2)]
!!!RDF**kern: > = above
!!!RDF**kern: < = below
!!!EED: Rafael Laurindo
!!!EEV: 2021/08/05
!!!EED2: Daniel Wright
!!!EEV2: 2022/02/11
